source/img/vector/traktor-6-vector.svg

<svg width="299" height="167" viewBox="0 0 299 167" fill="none" xmlns="http://www.w3.org/2000/svg">
<circle cx="94.8322" cy="128.572" r="30.325" stroke="#A0A1A2" stroke-width="13.9519"/>
<circle cx="94.5189" cy="128.887" r="17.993" stroke="#A0A1A2" stroke-width="6.64375"/>
<circle cx="95.7725" cy="117.603" r="1.25381" fill="#A0A1A2"/>
<circle cx="90.7571" cy="118.857" r="1.25381" fill="#A0A1A2"/>
<circle cx="90.7567" cy="138.92" r="1.25381" fill="#A0A1A2"/>
<circle cx="86.996" cy="136.412" r="1.25381" fill="#A0A1A2"/>
<circle cx="104.551" cy="135.784" r="1.25381" fill="#A0A1A2"/>
<circle cx="106.43" cy="130.768" r="1.25381" fill="#A0A1A2"/>
<circle r="1.25381" transform="matrix(-1 0 0 1 84.4882 131.395)" fill="#A0A1A2"/>
<circle cx="106.43" cy="125.752" r="1.25381" fill="#A0A1A2"/>
<circle r="1.25381" transform="matrix(-1 0 0 1 84.4882 126.38)" fill="#A0A1A2"/>
<circle cx="104.551" cy="121.99" r="1.25381" fill="#A0A1A2"/>
<circle r="1.25381" transform="matrix(-1 0 0 1 86.3673 121.99)" fill="#A0A1A2"/>
<circle cx="100.789" cy="118.857" r="1.25381" fill="#A0A1A2"/>
<circle cx="100.789" cy="138.92" r="1.25381" fill="#A0A1A2"/>
<circle cx="95.7724" cy="140.174" r="1.25381" fill="#A0A1A2"/>
<circle cx="248.519" cy="129.102" r="17.993" stroke="#A0A1A2" stroke-width="6.64375"/>
<circle cx="248.832" cy="128.787" r="30.325" stroke="#A0A1A2" stroke-width="13.9519"/>
<circle cx="248.519" cy="117.818" r="1.25381" fill="#A0A1A2"/>
<circle cx="243.503" cy="119.072" r="1.25381" fill="#A0A1A2"/>
<circle cx="243.504" cy="139.135" r="1.25381" fill="#A0A1A2"/>
<circle cx="239.742" cy="136.627" r="1.25381" fill="#A0A1A2"/>
<circle cx="257.297" cy="135.998" r="1.25381" fill="#A0A1A2"/>
<circle cx="259.176" cy="130.983" r="1.25381" fill="#A0A1A2"/>
<circle r="1.25381" transform="matrix(-1 0 0 1 237.234 131.61)" fill="#A0A1A2"/>
<circle cx="259.176" cy="125.967" r="1.25381" fill="#A0A1A2"/>
<circle r="1.25381" transform="matrix(-1 0 0 1 237.234 126.595)" fill="#A0A1A2"/>
<circle cx="257.297" cy="122.205" r="1.25381" fill="#A0A1A2"/>
<circle r="1.25381" transform="matrix(-1 0 0 1 239.113 122.205)" fill="#A0A1A2"/>
<circle cx="253.535" cy="119.072" r="1.25381" fill="#A0A1A2"/>
<circle cx="253.535" cy="139.135" r="1.25381" fill="#A0A1A2"/>
<circle cx="248.518" cy="140.389" r="1.25381" fill="#A0A1A2"/>
<path fill-rule="evenodd" clip-rule="evenodd" d="M4.82477 125.966C0.311038 125.716 0.227451 121.265 0.749873 119.07L7.01949 71.7389L42.5441 63.7955L40.8708 64.2138V64.5273L39.9304 72.0502L10.1523 76.4385V115.934C10.4658 117.187 11.9077 119.507 15.1676 118.755L60.6184 105.903L61.5587 103.709L37.5521 110.197L42.1244 73.6182H42.122L42.1246 73.6174L43.3756 63.6096L107.952 49.1702L103.563 15.9442L100.115 10.302H96.6672V9.04818H126.445V0.271484H131.461V9.04785H130.444V15.6304H107.561L107.875 18.4515H130.13V21.2725H126.996V78.3211H116.965L111.95 49.1699L108.502 49.7968L114.144 83.3363L107.875 80.8287H93.456V83.9632H107.875L132.951 102.144L139.534 118.13V129.101V129.414H142.982V117.816L135.772 101.203L115.084 84.9036H182.24L182.24 84.9039L186.942 103.711H207.316L225.497 80.829H260.29L263.111 72.9927V68.2909L266.872 60.4546H269.067L270.947 61.7084V65.1564L273.455 71.112L276.903 80.829L280.037 84.9039V88.6654L288.814 97.4421L288.187 98.6959H285.155L274.32 83.0234H230.123L212.883 105.279V114.894C212.798 115.142 212.719 115.385 212.645 115.622H209.197H189.763V124.086C189.763 127.847 185.792 129.205 183.807 129.414H165.314V139.131H146.506V129.414H134.595C133.09 100.577 112.235 90.8595 101.996 89.6057H86.0098L76.9196 93.0537L72.5313 93.9941L70.0179 97.3816L74.9623 81.7679L69.0067 82.7082L66.8125 100.575H67.6486L65.3218 103.711H61.5604L53.4106 127.22H49.9626V130.982H30.842V125.966H4.82477ZM39.8412 74.2577L12.66 78.3192V114.993C12.66 116.498 14.3317 116.456 15.1676 116.247L34.7268 110.961L39.8412 74.2577ZM291.873 108.413L290.966 107.101L296.964 103.711L298.531 105.905L290.381 110.921L289.755 113.428L285.366 112.801V110.921C275.586 93.6179 257.051 89.5012 249.006 89.6057C232.538 88.8656 222.112 98.4327 216.644 107.151V105.279L232.317 85.5311H271.185L283.723 103.084L289.365 110.921L291.873 108.413ZM134.832 15.6304V9.04818H165.94L167.459 15.6304H134.832ZM134.832 18.4515H168.11L176.284 53.872L180.647 55.3646L186.865 80.8287L186.081 81.4559H186.001L185.455 81.9569L185.298 82.0825H137.966V21.2725H134.832V18.4515ZM190.313 80.8287L183.768 56.4321L188.196 57.9469L191.33 81.4559H189.686L190.313 80.8287ZM79.3506 90.2322H80.291L88.4408 78.6344L91.2619 77.3806L111.323 75.1864V73.6191L91.2619 75.8133L87.187 77.3806L79.3506 90.2322ZM138.043 19.7051H163.2L170.769 79.2612H138.043V19.7051ZM139.924 21.5858V77.3805H168.634L161.543 21.5858H139.924ZM143.055 24.4072H159.668V46.349H154.652V67.0369H143.055V24.4072ZM262.797 80.5137L264.678 73.6177L265.618 71.4235L267.185 71.1101L268.753 68.6024L269.693 67.3486L274.708 79.5733V80.8271L262.797 80.5137ZM264.677 69.8559L264.363 68.2886L266.871 62.9599L268.752 62.333L270.005 63.2734L269.692 65.4675L266.557 69.8559H264.677ZM149.011 88.3516H146.505V129.101H149.011L149.011 136.622H162.176V129.101H164.683V88.3516H162.176H149.012H149.011ZM162.176 90.8592H149.012V99.0088H162.176V90.8592ZM162.176 101.516V109.04H149.012V101.516H162.176ZM162.176 111.548H149.012V119.07H162.176V111.548ZM162.176 121.578H149.012V129.099H162.176V121.578ZM34.6002 86.4697H32.0926L29.8984 107.471L32.0926 106.844L34.6002 86.4697ZM50.2744 84.5902L44.6322 85.2171L42.1246 104.338L48.3937 102.771L50.2744 84.5902ZM58.9762 83.9633L64.6183 83.3364L62.7376 101.517L56.4685 103.084L58.9762 83.9633ZM68.0663 76.7526V74.245L89.6946 72.3643V74.8719L68.0663 76.7526Z" fill="#A0A1A2"/>
<path d="M75.5312 81.7715L45.0312 85.2715L42.5312 104.271L70.0312 96.7715L75.5312 81.7715Z" fill="white"/>
<path d="M121.031 21.7715L108.531 20.2715L111.531 45.7715H114.031L118.531 75.2715H121.031V21.7715Z" fill="white"/>
</svg>

<svg width="299" height="167" fill="none" xmlns="http://www.w3.org/2000/svg"><circle cx="94.832" cy="128.572" r="30.325" stroke="#A0A1A2" stroke-width="13.952"/><circle cx="94.519" cy="128.887" r="17.993" stroke="#A0A1A2" stroke-width="6.644"/><circle cx="95.772" cy="117.603" r="1.254" fill="#A0A1A2"/><circle cx="90.757" cy="118.857" r="1.254" fill="#A0A1A2"/><circle cx="90.757" cy="138.92" r="1.254" fill="#A0A1A2"/><circle cx="86.996" cy="136.412" r="1.254" fill="#A0A1A2"/><circle cx="104.551" cy="135.784" r="1.254" fill="#A0A1A2"/><circle cx="106.43" cy="130.768" r="1.254" fill="#A0A1A2"/><circle r="1.254" transform="matrix(-1 0 0 1 84.488 131.395)" fill="#A0A1A2"/><circle cx="106.43" cy="125.752" r="1.254" fill="#A0A1A2"/><circle r="1.254" transform="matrix(-1 0 0 1 84.488 126.38)" fill="#A0A1A2"/><circle cx="104.551" cy="121.99" r="1.254" fill="#A0A1A2"/><circle r="1.254" transform="matrix(-1 0 0 1 86.367 121.99)" fill="#A0A1A2"/><circle cx="100.789" cy="118.857" r="1.254" fill="#A0A1A2"/><circle cx="100.789" cy="138.92" r="1.254" fill="#A0A1A2"/><circle cx="95.772" cy="140.174" r="1.254" fill="#A0A1A2"/><circle cx="248.519" cy="129.102" r="17.993" stroke="#A0A1A2" stroke-width="6.644"/><circle cx="248.832" cy="128.787" r="30.325" stroke="#A0A1A2" stroke-width="13.952"/><circle cx="248.519" cy="117.818" r="1.254" fill="#A0A1A2"/><circle cx="243.503" cy="119.072" r="1.254" fill="#A0A1A2"/><circle cx="243.504" cy="139.135" r="1.254" fill="#A0A1A2"/><circle cx="239.742" cy="136.627" r="1.254" fill="#A0A1A2"/><circle cx="257.297" cy="135.998" r="1.254" fill="#A0A1A2"/><circle cx="259.176" cy="130.983" r="1.254" fill="#A0A1A2"/><circle r="1.254" transform="matrix(-1 0 0 1 237.234 131.61)" fill="#A0A1A2"/><circle cx="259.176" cy="125.967" r="1.254" fill="#A0A1A2"/><circle r="1.254" transform="matrix(-1 0 0 1 237.234 126.595)" fill="#A0A1A2"/><circle cx="257.297" cy="122.205" r="1.254" fill="#A0A1A2"/><circle r="1.254" transform="matrix(-1 0 0 1 239.113 122.205)" fill="#A0A1A2"/><circle cx="253.535" cy="119.072" r="1.254" fill="#A0A1A2"/><circle cx="253.535" cy="139.135" r="1.254" fill="#A0A1A2"/><circle cx="248.518" cy="140.389" r="1.254" fill="#A0A1A2"/><path fill-rule="evenodd" clip-rule="evenodd" d="M4.825 125.966C.31 125.716.227 121.265.75 119.07l6.27-47.331 35.524-7.944-1.673.419v.313l-.94 7.523-29.779 4.389v39.495c.314 1.253 1.756 3.573 5.016 2.821l45.45-12.852.94-2.194-24.006 6.488 4.572-36.579h-.002.003l1.25-10.008 64.577-14.44-4.389-33.226-3.448-5.642h-3.448V9.048h29.778V.271h5.016v8.777h-1.017v6.582h-22.883l.314 2.821h22.255v2.822h-3.134V78.32h-10.031l-5.015-29.15-3.448.627 5.642 33.54-6.269-2.508H93.456v3.134h14.419l25.076 18.181 6.583 15.986v11.284h3.448v-11.598l-7.21-16.613-20.688-16.3h67.156l4.702 18.808h20.374l18.181-22.882h34.793l2.821-7.836V68.29l3.761-7.836h2.195l1.88 1.253v3.448l2.508 5.956 3.448 9.717 3.134 4.075v3.761l8.777 8.777-.627 1.254h-3.032L274.32 83.023h-44.197l-17.24 22.256v9.615c-.085.248-.164.491-.238.728h-22.882v8.464c0 3.761-3.971 5.119-5.956 5.328h-18.493v9.717h-18.808v-9.717h-11.911c-1.505-28.837-22.36-38.554-32.599-39.808H86.01l-9.09 3.448-4.389.94-2.513 3.388 4.944-15.614-5.955.94-2.195 17.867h.837l-2.327 3.136H61.56l-8.15 23.509h-3.447v3.762H30.842v-5.016H4.825zM39.84 74.258l-27.18 4.061v36.674c0 1.505 1.672 1.463 2.508 1.254l19.559-5.286 5.114-36.703zm252.032 34.155l-.907-1.312 5.998-3.39 1.567 2.194-8.15 5.016-.626 2.507-4.389-.627v-1.88c-9.78-17.303-28.315-21.42-36.36-21.315-16.468-.74-26.894 8.827-32.362 17.545v-1.872l15.673-19.748h38.868l12.538 17.553 5.642 7.837 2.508-2.508zM134.832 15.63V9.048h31.108l1.519 6.582h-32.627zm0 2.821h33.278l8.174 35.421 4.363 1.493 6.218 25.464-.784.627h-.08l-.546.5-.157.126h-47.332v-60.81h-3.134v-2.82zm55.481 62.378l-6.545-24.397 4.428 1.515 3.134 23.509h-1.644l.627-.627zM79.351 90.232h.94l8.15-11.598 2.82-1.253 20.062-2.195V73.62l-20.061 2.194-4.075 1.568-7.836 12.851zm58.692-70.527H163.2l7.569 59.556h-32.726V19.705zm1.881 1.88V77.38h28.71l-7.091-55.794h-21.619zm3.131 2.822h16.613V46.35h-5.016v20.688h-11.597v-42.63zm119.742 56.107l1.881-6.896.94-2.194 1.567-.314 1.568-2.508.94-1.253 5.015 12.224v1.254l-11.911-.313zm1.88-10.658l-.314-1.567 2.508-5.33 1.881-.626 1.253.94-.313 2.194-3.135 4.389h-1.88zM149.011 88.352h-2.506V129.1h2.506v7.521h13.165V129.1h2.507V88.35h-15.672zm13.165 2.507h-13.164v8.15h13.164v-8.15zm0 10.657v7.524h-13.164v-7.524h13.164zm0 10.032h-13.164v7.522h13.164v-7.522zm0 10.03h-13.164v7.521h13.164v-7.521zM34.6 86.47h-2.507l-2.195 21.001 2.195-.627L34.6 86.47zm15.674-1.88l-5.642.627-2.507 19.121 6.269-1.567 1.88-18.18zm8.702-.627l5.642-.627-1.88 18.181-6.27 1.567 2.508-19.12zm9.09-7.21v-2.508l21.629-1.88v2.507l-21.629 1.88z" fill="#A0A1A2"/><path d="M75.531 81.772l-30.5 3.5-2.5 18.999 27.5-7.5 5.5-15zm45.5-60.001l-12.5-1.5 3 25.5h2.5l4.5 29.5h2.5v-53.5z" fill="#fff"/></svg>
